flaticon/music/equalizer.svg

<svg xmlns="http://www.w3.org/2000/svg" width="32" height="32" viewBox="0 0 24 24">
    <path d="M3.199219 8.398438C3.199219 8.621094 3.019531 8.800781 2.800781 8.800781 2.578125 8.800781 2.398438 8.621094 2.398438 8.398438 2.398438 8.179688 2.578125 8 2.800781 8 3.019531 8 3.199219 8.179688 3.199219 8.398438zM20.800781 8.398438C20.800781 8.621094 20.621094 8.800781 20.398438 8.800781 20.179688 8.800781 20 8.621094 20 8.398438 20 8.179688 20.179688 8 20.398438 8 20.621094 8 20.800781 8.179688 20.800781 8.398438zM4.800781 8.398438C4.800781 8.621094 4.621094 8.800781 4.398438 8.800781 4.179688 8.800781 4 8.621094 4 8.398438 4 8.179688 4.179688 8 4.398438 8 4.621094 8 4.800781 8.179688 4.800781 8.398438zM1.601562 8.398438C1.601562 8.621094 1.421875 8.800781 1.199219 8.800781.980469 8.800781.800781 8.621094.800781 8.398438.800781 8.179688.980469 8 1.199219 8 1.421875 8 1.601562 8.179688 1.601562 8.398438zM11.199219 8.398438C11.199219 8.621094 11.019531 8.800781 10.800781 8.800781 10.578125 8.800781 10.398438 8.621094 10.398438 8.398438 10.398438 8.179688 10.578125 8 10.800781 8 11.019531 8 11.199219 8.179688 11.199219 8.398438zM12.800781 8.398438C12.800781 8.621094 12.621094 8.800781 12.398438 8.800781 12.179688 8.800781 12 8.621094 12 8.398438 12 8.179688 12.179688 8 12.398438 8 12.621094 8 12.800781 8.179688 12.800781 8.398438zM17.601562 8.398438C17.601562 8.621094 17.421875 8.800781 17.199219 8.800781 16.980469 8.800781 16.800781 8.621094 16.800781 8.398438 16.800781 8.179688 16.980469 8 17.199219 8 17.421875 8 17.601562 8.179688 17.601562 8.398438zM8 8.398438C8 8.621094 7.820312 8.800781 7.601562 8.800781 7.378906 8.800781 7.199219 8.621094 7.199219 8.398438 7.199219 8.179688 7.378906 8 7.601562 8 7.820312 8 8 8.179688 8 8.398438zM16 8.398438C16 8.621094 15.820312 8.800781 15.601562 8.800781 15.378906 8.800781 15.199219 8.621094 15.199219 8.398438 15.199219 8.179688 15.378906 8 15.601562 8 15.820312 8 16 8.179688 16 8.398438zM9.601562 8.398438C9.601562 8.621094 9.421875 8.800781 9.199219 8.800781 8.980469 8.800781 8.800781 8.621094 8.800781 8.398438 8.800781 8.179688 8.980469 8 9.199219 8 9.421875 8 9.601562 8.179688 9.601562 8.398438zM19.199219 8.398438C19.199219 8.621094 19.019531 8.800781 18.800781 8.800781 18.578125 8.800781 18.398438 8.621094 18.398438 8.398438 18.398438 8.179688 18.578125 8 18.800781 8 19.019531 8 19.199219 8.179688 19.199219 8.398438zM22.398438 8.398438C22.398438 8.621094 22.222656 8.800781 22 8.800781 21.777344 8.800781 21.601562 8.621094 21.601562 8.398438 21.601562 8.179688 21.777344 8 22 8 22.222656 8 22.398438 8.179688 22.398438 8.398438zM14.398438 8.398438C14.398438 8.621094 14.222656 8.800781 14 8.800781 13.777344 8.800781 13.601562 8.621094 13.601562 8.398438 13.601562 8.179688 13.777344 8 14 8 14.222656 8 14.398438 8.179688 14.398438 8.398438zM6.398438 8.398438C6.398438 8.621094 6.222656 8.800781 6 8.800781 5.777344 8.800781 5.601562 8.621094 5.601562 8.398438 5.601562 8.179688 5.777344 8 6 8 6.222656 8 6.398438 8.179688 6.398438 8.398438zM6.398438 8.398438"/>
    <path d="M 23.601562 0 L 0.398438 0 C 0.179688 0 0 0.179688 0 0.398438 L 0 23.601562 C 0 23.820312 0.179688 24 0.398438 24 L 23.601562 24 C 23.820312 24 24 23.820312 24 23.601562 L 24 0.398438 C 24 0.179688 23.820312 0 23.601562 0 Z M 0.800781 0.800781 L 23.199219 0.800781 L 23.199219 4 L 0.800781 4 Z M 23.199219 23.199219 L 0.800781 23.199219 L 0.800781 4.800781 L 23.199219 4.800781 Z M 23.199219 23.199219"/>
    <path d="M2 7.601562L2.800781 7.601562C2.90625 7.601562 3.007812 7.558594 3.082031 7.484375L3.484375 7.082031C3.558594 7.007812 3.601562 6.90625 3.601562 6.800781L3.601562 6C3.601562 5.894531 3.558594 5.792969 3.484375 5.71875L3.082031 5.316406C3.007812 5.242188 2.90625 5.199219 2.800781 5.199219L2 5.199219C1.894531 5.199219 1.792969 5.242188 1.71875 5.316406L1.316406 5.71875C1.242188 5.792969 1.199219 5.894531 1.199219 6L1.199219 6.800781C1.199219 6.90625 1.242188 7.007812 1.316406 7.082031L1.71875 7.484375C1.792969 7.558594 1.894531 7.601562 2 7.601562zM2 6.164062L2.164062 6 2.632812 6 2.800781 6.164062 2.800781 6.632812 2.632812 6.800781 2.164062 6.800781 2 6.632812zM6.28125 7.484375L6.683594 7.082031C6.757812 7.007812 6.800781 6.90625 6.800781 6.800781L6.800781 6C6.800781 5.894531 6.757812 5.792969 6.683594 5.71875L6.28125 5.316406C6.207031 5.242188 6.105469 5.199219 6 5.199219L5.199219 5.199219C5.09375 5.199219 4.992188 5.242188 4.917969 5.316406L4.515625 5.71875C4.441406 5.792969 4.398438 5.894531 4.398438 6L4.398438 6.800781C4.398438 6.90625 4.441406 7.007812 4.515625 7.082031L4.917969 7.484375C4.992188 7.558594 5.09375 7.601562 5.199219 7.601562L6 7.601562C6.105469 7.601562 6.207031 7.558594 6.28125 7.484375zM5.367188 6.800781L5.199219 6.632812 5.199219 6.164062 5.367188 6 5.835938 6 6 6.164062 6 6.632812 5.835938 6.800781zM9.484375 5.316406C9.40625 5.242188 9.304688 5.199219 9.199219 5.199219L8.398438 5.199219C8.292969 5.199219 8.191406 5.242188 8.117188 5.316406L7.71875 5.71875C7.640625 5.792969 7.601562 5.894531 7.601562 6L7.601562 6.800781C7.601562 6.90625 7.640625 7.007812 7.71875 7.082031L8.117188 7.484375C8.191406 7.558594 8.292969 7.601562 8.398438 7.601562L9.199219 7.601562C9.304688 7.601562 9.40625 7.558594 9.484375 7.484375L9.882812 7.082031C9.957031 7.007812 10 6.90625 10 6.800781L10 6C10 5.894531 9.957031 5.792969 9.882812 5.71875zM9.199219 6.632812L9.035156 6.800781 8.566406 6.800781 8.398438 6.632812 8.398438 6.164062 8.566406 6 9.035156 6 9.199219 6.164062zM11.316406 7.484375C11.390625 7.558594 11.492188 7.601562 11.601562 7.601562L12.398438 7.601562C12.507812 7.601562 12.609375 7.558594 12.683594 7.484375L13.082031 7.082031C13.15625 7.007812 13.199219 6.90625 13.199219 6.800781L13.199219 6C13.199219 5.894531 13.15625 5.792969 13.082031 5.71875L12.683594 5.316406C12.609375 5.242188 12.507812 5.199219 12.398438 5.199219L11.601562 5.199219C11.492188 5.199219 11.390625 5.242188 11.316406 5.316406L10.917969 5.71875C10.84375 5.792969 10.800781 5.894531 10.800781 6L10.800781 6.800781C10.800781 6.90625 10.84375 7.007812 10.917969 7.082031zM11.601562 6.164062L11.765625 6 12.234375 6 12.398438 6.164062 12.398438 6.632812 12.234375 6.800781 11.765625 6.800781 11.601562 6.632812zM15.601562 7.601562C15.707031 7.601562 15.808594 7.558594 15.882812 7.484375L16.28125 7.082031C16.359375 7.007812 16.398438 6.90625 16.398438 6.800781L16.398438 6C16.398438 5.894531 16.359375 5.792969 16.28125 5.71875L15.882812 5.316406C15.808594 5.242188 15.707031 5.199219 15.601562 5.199219L14.800781 5.199219C14.695312 5.199219 14.59375 5.242188 14.515625 5.316406L14.117188 5.71875C14.042969 5.792969 14 5.894531 14 6L14 6.800781C14 6.90625 14.042969 7.007812 14.117188 7.082031L14.515625 7.484375C14.59375 7.558594 14.695312 7.601562 14.800781 7.601562zM14.800781 6.164062L14.964844 6 15.433594 6 15.601562 6.164062 15.601562 6.632812 15.433594 6.800781 14.964844 6.800781 14.800781 6.632812zM19.082031 7.484375L19.484375 7.082031C19.558594 7.007812 19.601562 6.90625 19.601562 6.800781L19.601562 6C19.601562 5.894531 19.558594 5.792969 19.484375 5.71875L19.082031 5.316406C19.007812 5.242188 18.90625 5.199219 18.800781 5.199219L18 5.199219C17.894531 5.199219 17.792969 5.242188 17.71875 5.316406L17.316406 5.71875C17.242188 5.792969 17.199219 5.894531 17.199219 6L17.199219 6.800781C17.199219 6.90625 17.242188 7.007812 17.316406 7.082031L17.71875 7.484375C17.792969 7.558594 17.894531 7.601562 18 7.601562L18.800781 7.601562C18.90625 7.601562 19.007812 7.558594 19.082031 7.484375zM18.164062 6.800781L18 6.632812 18 6.164062 18.164062 6 18.632812 6 18.800781 6.164062 18.800781 6.632812 18.632812 6.800781zM22.28125 5.316406C22.207031 5.242188 22.105469 5.199219 22 5.199219L21.199219 5.199219C21.09375 5.199219 20.992188 5.242188 20.917969 5.316406L20.515625 5.71875C20.441406 5.792969 20.398438 5.894531 20.398438 6L20.398438 6.800781C20.398438 6.90625 20.441406 7.007812 20.515625 7.082031L20.917969 7.484375C20.992188 7.558594 21.09375 7.601562 21.199219 7.601562L22 7.601562C22.105469 7.601562 22.207031 7.558594 22.28125 7.484375L22.683594 7.082031C22.757812 7.007812 22.800781 6.90625 22.800781 6.800781L22.800781 6C22.800781 5.894531 22.757812 5.792969 22.683594 5.71875zM22 6.632812L21.835938 6.800781 21.367188 6.800781 21.199219 6.632812 21.199219 6.164062 21.367188 6 21.835938 6 22 6.164062zM3.199219 1.199219L1.601562 1.199219C1.378906 1.199219 1.199219 1.378906 1.199219 1.601562L1.199219 3.199219C1.199219 3.421875 1.378906 3.601562 1.601562 3.601562L3.199219 3.601562C3.421875 3.601562 3.601562 3.421875 3.601562 3.199219L3.601562 1.601562C3.601562 1.378906 3.421875 1.199219 3.199219 1.199219zM2.800781 2.800781L2 2.800781 2 2 2.800781 2zM6.398438 1.199219L4.800781 1.199219C4.578125 1.199219 4.398438 1.378906 4.398438 1.601562L4.398438 3.199219C4.398438 3.421875 4.578125 3.601562 4.800781 3.601562L6.398438 3.601562C6.621094 3.601562 6.800781 3.421875 6.800781 3.199219L6.800781 1.601562C6.800781 1.378906 6.621094 1.199219 6.398438 1.199219zM6 2.800781L5.199219 2.800781 5.199219 2 6 2zM9.601562 1.199219L8 1.199219C7.777344 1.199219 7.601562 1.378906 7.601562 1.601562L7.601562 3.199219C7.601562 3.421875 7.777344 3.601562 8 3.601562L9.601562 3.601562C9.820312 3.601562 10 3.421875 10 3.199219L10 1.601562C10 1.378906 9.820312 1.199219 9.601562 1.199219zM9.199219 2.800781L8.398438 2.800781 8.398438 2 9.199219 2zM12.800781 1.199219L11.199219 1.199219C10.980469 1.199219 10.800781 1.378906 10.800781 1.601562L10.800781 3.199219C10.800781 3.421875 10.980469 3.601562 11.199219 3.601562L12.800781 3.601562C13.019531 3.601562 13.199219 3.421875 13.199219 3.199219L13.199219 1.601562C13.199219 1.378906 13.019531 1.199219 12.800781 1.199219zM12.398438 2.800781L11.601562 2.800781 11.601562 2 12.398438 2zM22.398438 1.199219L14.398438 1.199219C14.179688 1.199219 14 1.378906 14 1.601562L14 3.199219C14 3.421875 14.179688 3.601562 14.398438 3.601562L22.398438 3.601562C22.621094 3.601562 22.800781 3.421875 22.800781 3.199219L22.800781 1.601562C22.800781 1.378906 22.621094 1.199219 22.398438 1.199219zM22 2.800781L14.800781 2.800781 14.800781 2 22 2zM3.601562 10.398438C3.601562 10.179688 3.421875 10 3.199219 10 2.980469 10 2.800781 10.179688 2.800781 10.398438L2.800781 18.398438 1.601562 18.398438 1.601562 20.398438 2.800781 20.398438 2.800781 21.601562C2.800781 21.820312 2.980469 22 3.199219 22 3.421875 22 3.601562 21.820312 3.601562 21.601562L3.601562 20.398438 4.800781 20.398438 4.800781 18.398438 3.601562 18.398438zM4 19.601562L2.398438 19.601562 2.398438 19.199219 4 19.199219zM8 10.398438C8 10.179688 7.820312 10 7.601562 10 7.378906 10 7.199219 10.179688 7.199219 10.398438L7.199219 16 6 16 6 18 7.199219 18 7.199219 21.601562C7.199219 21.820312 7.378906 22 7.601562 22 7.820312 22 8 21.820312 8 21.601562L8 18 9.199219 18 9.199219 16 8 16zM8.398438 17.199219L6.800781 17.199219 6.800781 16.800781 8.398438 16.800781zM12.398438 10.398438C12.398438 10.179688 12.222656 10 12 10 11.777344 10 11.601562 10.179688 11.601562 10.398438L11.601562 11.601562 10.398438 11.601562 10.398438 13.601562 11.601562 13.601562 11.601562 21.601562C11.601562 21.820312 11.777344 22 12 22 12.222656 22 12.398438 21.820312 12.398438 21.601562L12.398438 13.601562 13.601562 13.601562 13.601562 11.601562 12.398438 11.601562zM12.800781 12.800781L11.199219 12.800781 11.199219 12.398438 12.800781 12.398438zM16.800781 10.398438C16.800781 10.179688 16.621094 10 16.398438 10 16.179688 10 16 10.179688 16 10.398438L16 16.398438 14.800781 16.398438 14.800781 18.398438 16 18.398438 16 21.601562C16 21.820312 16.179688 22 16.398438 22 16.621094 22 16.800781 21.820312 16.800781 21.601562L16.800781 18.398438 18 18.398438 18 16.398438 16.800781 16.398438zM17.199219 17.601562L15.601562 17.601562 15.601562 17.199219 17.199219 17.199219zM21.199219 10.398438C21.199219 10.179688 21.019531 10 20.800781 10 20.578125 10 20.398438 10.179688 20.398438 10.398438L20.398438 13.601562 19.199219 13.601562 19.199219 15.601562 20.398438 15.601562 20.398438 21.601562C20.398438 21.820312 20.578125 22 20.800781 22 21.019531 22 21.199219 21.820312 21.199219 21.601562L21.199219 15.601562 22.398438 15.601562 22.398438 13.601562 21.199219 13.601562zM21.601562 14.800781L20 14.800781 20 14.398438 21.601562 14.398438zM21.601562 14.800781"/>
</svg>

<svg xmlns="http://www.w3.org/2000/svg" width="32" height="32" viewBox="0 0 24 24">
    <path d="M3.2 8.398a.401.401 0 1 1-.803.003.401.401 0 0 1 .802-.003zm0 0M20.8 8.398a.401.401 0 1 1 0 0zm0 0M4.8 8.398a.401.401 0 1 1 0 0zm0 0M1.602 8.398a.401.401 0 1 1 0 0zm0 0M11.2 8.398a.401.401 0 1 1-.803.003.401.401 0 0 1 .802-.003zm0 0M12.8 8.398a.401.401 0 1 1 0 0zm0 0M17.602 8.398a.401.401 0 1 1 0 0zm0 0M8 8.398a.401.401 0 1 1-.802.003A.401.401 0 0 1 8 8.398zm0 0M16 8.398a.401.401 0 1 1-.802.003.401.401 0 0 1 .802-.003zm0 0M9.602 8.398a.401.401 0 1 1 0 0zm0 0M19.2 8.398a.401.401 0 1 1-.803.003.401.401 0 0 1 .802-.003zm0 0M22.398 8.398a.398.398 0 1 1-.796 0 .398.398 0 1 1 .796 0zm0 0M14.398 8.398a.398.398 0 1 1-.796 0 .398.398 0 1 1 .796 0zm0 0M6.398 8.398a.398.398 0 1 1-.796 0 .398.398 0 1 1 .796 0zm0 0"/>
    <path d="M23.602 0H.398A.4.4 0 0 0 0 .398v23.204A.4.4 0 0 0 .398 24h23.204a.4.4 0 0 0 .398-.398V.398A.4.4 0 0 0 23.602 0zM.8.8h22.398V4H.801zm22.398 22.4H.801V4.8h22.398zm0 0"/>
    <path d="M2 7.602h.8a.4.4 0 0 0 .282-.118l.402-.402a.4.4 0 0 0 .118-.281V6a.4.4 0 0 0-.118-.281l-.402-.403a.4.4 0 0 0-.281-.117H2a.4.4 0 0 0-.281.117l-.403.403A.4.4 0 0 0 1.2 6v.8a.4.4 0 0 0 .117.282l.403.402A.4.4 0 0 0 2 7.602zm0-1.438L2.164 6h.469l.168.164v.469l-.168.168h-.469L2 6.633zm0 0M6.281 7.484l.403-.402a.4.4 0 0 0 .117-.281V6a.4.4 0 0 0-.117-.281l-.403-.403A.4.4 0 0 0 6 5.2h-.8a.4.4 0 0 0-.282.117l-.402.403A.4.4 0 0 0 4.398 6v.8a.4.4 0 0 0 .118.282l.402.402a.4.4 0 0 0 .281.118H6a.4.4 0 0 0 .281-.118zm-.914-.683L5.2 6.633v-.469L5.367 6h.469L6 6.164v.469l-.164.168zm0 0M9.484 5.316A.416.416 0 0 0 9.2 5.2h-.8a.4.4 0 0 0-.282.117l-.398.403A.384.384 0 0 0 7.602 6v.8c0 .106.039.208.117.282l.398.402a.4.4 0 0 0 .281.118H9.2a.416.416 0 0 0 .285-.118l.399-.402A.4.4 0 0 0 10 6.801V6a.4.4 0 0 0-.117-.281zM9.2 6.633l-.164.168h-.469l-.168-.168v-.469L8.566 6h.47l.163.164zm0 0M11.316 7.484a.402.402 0 0 0 .286.118h.796c.11 0 .211-.043.286-.118l.398-.402a.4.4 0 0 0 .117-.281V6a.4.4 0 0 0-.117-.281l-.398-.403a.402.402 0 0 0-.286-.117h-.796c-.11 0-.211.043-.286.117l-.398.403a.4.4 0 0 0-.117.281v.8a.4.4 0 0 0 .117.282zm.286-1.32L11.766 6h.468l.164.164v.469l-.164.168h-.468l-.164-.168zm0 0M15.602 7.602a.4.4 0 0 0 .28-.118l.4-.402a.384.384 0 0 0 .116-.281V6a.384.384 0 0 0-.117-.281l-.398-.403a.4.4 0 0 0-.281-.117H14.8a.416.416 0 0 0-.285.117l-.399.403A.4.4 0 0 0 14 6v.8a.4.4 0 0 0 .117.282l.399.402c.078.075.18.118.285.118zM14.8 6.164L14.965 6h.469l.168.164v.469l-.168.168h-.47l-.163-.168zm0 0M19.082 7.484l.402-.402a.4.4 0 0 0 .118-.281V6a.4.4 0 0 0-.118-.281l-.402-.403a.4.4 0 0 0-.281-.117H18a.4.4 0 0 0-.281.117l-.403.403A.4.4 0 0 0 17.2 6v.8a.4.4 0 0 0 .117.282l.403.402a.4.4 0 0 0 .281.118h.8a.4.4 0 0 0 .282-.118zm-.918-.683L18 6.633v-.469L18.164 6h.469l.168.164v.469l-.168.168zm0 0M22.281 5.316A.4.4 0 0 0 22 5.2h-.8a.4.4 0 0 0-.282.117l-.402.403a.4.4 0 0 0-.118.281v.8a.4.4 0 0 0 .118.282l.402.402a.4.4 0 0 0 .281.118H22a.4.4 0 0 0 .281-.118l.403-.402a.4.4 0 0 0 .117-.281V6a.4.4 0 0 0-.117-.281zM22 6.633l-.164.168h-.469l-.168-.168v-.469L21.367 6h.469l.164.164zm0 0M3.2 1.2H1.601a.402.402 0 0 0-.403.402v1.597c0 .223.18.403.403.403h1.597c.223 0 .403-.18.403-.403V1.602a.402.402 0 0 0-.403-.403zm-.4 1.6H2V2h.8zm0 0M6.398 1.2H4.801a.402.402 0 0 0-.403.402v1.597c0 .223.18.403.403.403h1.597c.223 0 .403-.18.403-.403V1.602a.402.402 0 0 0-.403-.403zM6 2.8h-.8V2H6zm0 0M9.602 1.2H8a.398.398 0 0 0-.398.402v1.597c0 .223.175.403.398.403h1.602c.218 0 .398-.18.398-.403V1.602a.401.401 0 0 0-.398-.403zm-.403 1.6h-.8V2h.8zm0 0M12.8 1.2h-1.6a.401.401 0 0 0-.4.402v1.597c0 .223.18.403.4.403h1.6c.22 0 .4-.18.4-.403V1.602a.401.401 0 0 0-.4-.403zm-.402 1.6h-.796V2h.796zm0 0M22.398 1.2h-8a.401.401 0 0 0-.398.402v1.597c0 .223.18.403.398.403h8c.223 0 .403-.18.403-.403V1.602a.402.402 0 0 0-.403-.403zM22 2.8h-7.2V2H22zm0 0M3.602 10.398a.401.401 0 0 0-.801 0v8H1.6v2h1.2v1.204a.4.4 0 0 0 .8 0v-1.204h1.2v-2H3.6zM4 19.602H2.398v-.403H4zm0 0M8 10.398a.4.4 0 0 0-.8 0V16H6v2h1.2v3.602a.401.401 0 0 0 .8 0V18h1.2v-2H8zm.398 6.801H6.801v-.398h1.597zm0 0M12.398 10.398a.398.398 0 1 0-.796 0v1.204h-1.204v2h1.204v8a.398.398 0 1 0 .796 0v-8h1.204v-2h-1.204zm.403 2.403h-1.602v-.403h1.602zm0 0M16.8 10.398a.401.401 0 0 0-.8 0v6h-1.2v2H16v3.204a.4.4 0 0 0 .8 0v-3.204H18v-2h-1.2zm.4 7.204h-1.598v-.403h1.597zm0 0M21.2 10.398a.4.4 0 0 0-.802 0v3.204H19.2v2h1.2v6a.401.401 0 0 0 .8 0v-6h1.2v-2h-1.2zm.402 4.403H20v-.403h1.602zm0 0"/>
</svg>
